X: 553
T: The New Town of Edinburgh
%R: reel
B: "Twenty Four Country Dances for the Year 1805", Tho. Preston, ed. p.237 #1
F: http://folkopedia.efdss.org/images/archive/0/02/20121211105513%21Preston_24_1805.PDF
Z: 2014 John Chambers <jc:trillian.mit.edu>
M: C|
L: 1/8
K: Bb
g |\
fBdB gBdg | fBdB gcgb | fBdB gbfd | dfcf gccg |
fBdB fBdg | fBdB gcgb | eBdB GBFB | EGFE DB,B, |]
E |\
DEFB GBFB | DBFB cC-CE | DEFB GBFB | EGFE DB,B,F |
DEFB GBFB | dBfB Ac-cf | gbfg dfcg | fdcf dBB |]
%%begintext align
%% 1st and 2d Cu. change sides. back again. hands
%% across. back again. lead down the middle up
%% again right and left.
%%endtext

%%sep 1 1 500
%%sep 1 1 500
